icons/fill-new-arrow-chevron-up-circle.svg

<svg xmlns="http://www.w3.org/2000/svg" width="32px" height="32px" viewBox="0 0 32 32" version="1.1">
    <title>fill-new-arrow-chevron-up-circle</title>
    <g id="fill-new-arrow-chevron-up-circle" stroke-width="1" fill-rule="evenodd">
        <path d="M16,2 C23.7319865,2 30,8.2680135 30,16 C30,23.7319865 23.7319865,30 16,30 C8.2680135,30 2,23.7319865 2,16 C2,8.2680135 8.2680135,2 16,2 Z M16.7071068,12.2928932 C16.3165825,11.9023689 15.6834175,11.9023689 15.2928932,12.2928932 L10.2928932,17.2928932 C9.90236893,17.6834175 9.90236893,18.3165825 10.2928932,18.7071068 L10.3871006,18.7902954 C10.7793918,19.0953203 11.3466228,19.0675907 11.7071068,18.7071068 L16,14.415 L20.2928932,18.7071068 C20.6834175,19.0976311 21.3165825,19.0976311 21.7071068,18.7071068 C22.0976311,18.3165825 22.0976311,17.6834175 21.7071068,17.2928932 L16.7071068,12.2928932 Z" id="&#24418;&#29366;" />
    </g>
</svg>

<svg xmlns="http://www.w3.org/2000/svg" viewBox="0 0 32 32"><path fill="currentColor" d="M16 2c7.732 0 14 6.268 14 14s-6.268 14-14 14S2 23.732 2 16 8.268 2 16 2m.707 10.293a1 1 0 0 0-1.414 0l-5 5a1 1 0 0 0 0 1.414l.094.083a1 1 0 0 0 1.32-.083L16 14.415l4.293 4.292a1 1 0 0 0 1.414-1.414z"/></svg>
